outputs/icons/communication/chat_bubble_outline_round.svg

<svg xmlns="http://www.w3.org/2000/svg" width="1200" height="1200" fill="none"><g clip-path="url(#a)"><path fill="#000" d="M1000 200v600H258.5L200 858.5V200zm0-100H200c-55 0-100 45-100 100v779.5c0 44.5 54 67 85.5 35.5L300 900h700c55 0 100-45 100-100V200c0-55-45-100-100-100"/></g><defs><clipPath id="a"><path fill="#fff" d="M0 0h1200v1200H0z"/></clipPath></defs></svg>

<svg width="1200" height="1200" viewBox="0 0 1200 1200" fill="none" xmlns="http://www.w3.org/2000/svg"><g clip-path="url(#clip0_225_2426)"><path d="M1000 200V800H258.5L200 858.5V200H1000ZM1000 100H200C145 100 100 145 100 200V979.5C100 1024 154 1046.5 185.5 1015L300 900H1000C1055 900 1100 855 1100 800V200C1100 145 1055 100 1000 100Z" fill="black"/></g><defs><clipPath id="clip0_225_2426"><path width="24" fill="white" d="M0 0H1200V1200H0V0z"/></clipPath></defs></svg>
